X:1
T:488 - Cada Vez Mais
T:Letra: Phoebe Cary (1824-1871)
T:Trad.: William Edwin Entzminger (1859-1930)
T:MÃºsica: Phillip Phillips (1834-1895)
M:6/8
L:1/8
Q:1/4=110
K:F#maj
V:1
C | y"F#"A2F ("B"GF)D | "F#"C3-C2C | "B"D2D ("C#7"CD)C | "F#"A,3 z2C | A2F ("B"GF)D | "F#"C2A, C2C | ("B"DE)F "C#7"C2E | "F#"F3z3 || "C#7"G3/2A/2G ("F#"F2C) | A3/2B/2A "C#"G3 | "F#"A3/2G/2F ("B"GF)D | "F#"C2A, C2F | ("C#7"EF)G C2E | F3z2 |]
w:1.~Ã‰ gra-to re_lem-brar_ Que ca-da di_aes-tou Mais per-to do_ ce-les-te lar Em que_ mo-rar eu vou.     Ca-da vez mais,_    Ca-da vez mais,    Per-toeu es-tou_ doe-ter-no lar    Em que_ mo-rar eu vou._
w:2.~Mais per-toes-tou_ dos cÃ©us,_ Meu lar, meu i_de-al; Mais per-to dos_ a-ma-dos meus, Na ca_sa pa-ter-nal.
w:3.~Em bre-ve vou_ par-tir_ Pa-raon-de nÃ£o_ hÃ¡ dor; Pra-zer in-fin_do vou fru-ir Com Cris_to, meu Se-nhor.
w:4.~Oh, quan-doa-li_ che-gar_ Se-rei, en-tÃ£o,_ fe-liz! Des-can-soe paz_ i-rei go-zar Na-que_le bom pa-Ã­s.
w:5.~Eu sem-pre que_roes-tar_ Ao la-do teu,_ Se-nhor, A-tÃ© que pos_sa des-can-sar Na-que_le lar dea-mor.
W:
W:
W:1. Ã‰ grato relembrar
W:Que cada dia estou
W:Mais perto do celeste lar
W:Em que morar eu vou.
W:
W:(Estribilho)
W:Cada vez mais,
W:Cada vez mais,
W:Perto eu estou do eterno lar
W:Em que morar eu vou.
W:
W:2. Mais perto estou dos cÃ©us,
W:Meu lar, meu ideal;
W:Mais perto dos amados meus,
W:Na casa paternal.
W:
W:
W:
W:3. Em breve vou partir
W:Para onde nÃ£o hÃ¡ dor;
W:Prazer infindo vou fruir
W:Com Cristo, meu Senhor.
W:
W:4. Oh, quando ali chegar
W:Serei, entÃ£o, feliz!
W:Descanso e paz irei gozar
W:Naquele bom paÃ­s.
W:
W:5. Eu sempre quero estar
W:Ao lado teu, Senhor,
W:AtÃ© que possa descansar
W:Naquele lar de amor.
W:
W:

